X: 3/4
T:Faray Leve tre hoi Coleter
T:Antres Polka
R:polka
Z:id:hn-polka-74
M:2/4
L:1/8
K:Amix
Ad (3cdg|ed ed|B2 c2|dg B/A/B|cB AB|ed eB|ce e2|A/B/A A2|FA FA|ef fd|B (3B/A|1 BA A2:|2 A2 AB||
<e
====== T = 1, seed = 2 ======
<start>
